src/assets/images/gas-station 1.svg

<svg width="16" height="16" viewBox="0 0 16 16" fill="none" xmlns="http://www.w3.org/2000/svg">
<g clip-path="url(#clip0_0_182)">
<path d="M14.5697 2.09766L13.2363 0.764313C13.1061 0.634094 12.8952 0.634094 12.765 0.764313C12.6348 0.894531 12.6348 1.10547 12.765 1.23566L13.8626 2.33331L12.765 3.43097C12.7025 3.49347 12.6673 3.57809 12.6673 3.66666V4.66666C12.6673 5.40203 13.2653 6 14.0007 6V11.6667C14.0007 11.8506 13.8513 12 13.6673 12C13.4834 12 13.334 11.8506 13.334 11.6667V11C13.334 10.4486 12.8854 10 12.334 10H12.0007V1.33334C12.0007 0.597969 11.4027 0 10.6673 0H4.00067C3.26533 0 2.66733 0.597969 2.66733 1.33334V13.3333C1.93198 13.3333 1.33398 13.9313 1.33398 14.6667V15.6667C1.33398 15.8509 1.48308 16 1.66733 16H13.0007C13.1849 16 13.334 15.8509 13.334 15.6667V14.6667C13.334 13.9313 12.736 13.3333 12.0007 13.3333V10.6667H12.334C12.5179 10.6667 12.6674 10.8161 12.6674 11V11.6667C12.6674 12.2181 13.1159 12.6667 13.6674 12.6667C14.2188 12.6667 14.6674 12.2181 14.6674 11.6667V2.33334C14.6673 2.24478 14.6322 2.16016 14.5697 2.09766ZM10.6673 5.67284C10.6673 5.85709 10.5182 6.00619 10.334 6.00619H4.33398C4.14973 6.00619 4.00064 5.85709 4.00064 5.67284V1.66666C4.00064 1.48241 4.14973 1.33331 4.33398 1.33331H10.334C10.5182 1.33331 10.6673 1.48241 10.6673 1.66666V5.67284Z" fill="#4B5563"/>
</g>
<defs>
<clipPath id="clip0_0_182">
<rect width="16" height="16" fill="white"/>
</clipPath>
</defs>
</svg>

<?xml version="1.0" encoding="utf-8"?>
<!-- Generator: Adobe Illustrator 27.6.1, SVG Export Plug-In . SVG Version: 6.00 Build 0)  -->
<svg version="1.1" id="Layer_1" xmlns="http://www.w3.org/2000/svg" xmlns:xlink="http://www.w3.org/1999/xlink" x="0px" y="0px"
	 viewBox="0 0 16 16" style="enable-background:new 0 0 16 16;" xml:space="preserve">
<style type="text/css">
	.st0{clip-path:url(#SVGID_00000032634099278888251990000005433144687970971524_);}
	.st1{fill:#2D0E58;}
</style>
<g>
	<defs>
		<rect id="SVGID_1_" width="16" height="16"/>
	</defs>
	<clipPath id="SVGID_00000120539237515922749310000006238539192301947310_">
		<use xlink:href="#SVGID_1_"  style="overflow:visible;"/>
	</clipPath>
	<g style="clip-path:url(#SVGID_00000120539237515922749310000006238539192301947310_);">
		<path class="st1" d="M14.6,2.1l-1.3-1.3c-0.1-0.1-0.3-0.1-0.5,0c-0.1,0.1-0.1,0.3,0,0.5l1.1,1.1l-1.1,1.1
			c-0.1,0.1-0.1,0.1-0.1,0.2v1C12.7,5.4,13.3,6,14,6v5.7c0,0.2-0.1,0.3-0.3,0.3c-0.2,0-0.3-0.1-0.3-0.3V11c0-0.6-0.4-1-1-1H12V1.3
			C12,0.6,11.4,0,10.7,0H4C3.3,0,2.7,0.6,2.7,1.3v12c-0.7,0-1.3,0.6-1.3,1.3v1c0,0.2,0.1,0.3,0.3,0.3H13c0.2,0,0.3-0.1,0.3-0.3v-1
			c0-0.7-0.6-1.3-1.3-1.3v-2.7h0.3c0.2,0,0.3,0.1,0.3,0.3v0.7c0,0.6,0.4,1,1,1c0.6,0,1-0.4,1-1V2.3C14.7,2.2,14.6,2.2,14.6,2.1z
			 M10.7,5.7c0,0.2-0.1,0.3-0.3,0.3h-6C4.1,6,4,5.9,4,5.7v-4c0-0.2,0.1-0.3,0.3-0.3h6c0.2,0,0.3,0.1,0.3,0.3V5.7z"/>
	</g>
</g>
</svg>
